!!!COM: Scriabin, Alexander
!!!OTL@@FR: Prélude en si bémol mineur
!!!OTL@@EN: Prelude in Bb Minor
!!!OPR@@FR: 4 Préludes
!!!OPR@@EN: 4 Preludes
!!!OPS: 37
!!!ONM: 1
!!!ODT: 1903
!!!AGN: Prelude
**kern	**kern	**dynam
*staff2	*staff1	*staff1/2
*Ipiano	*Ipiano	*
*clefF4	*clefG2	*
*k[b-e-a-d-g-]	*k[b-e-a-d-g-]	*
*b-:	*b-:	*
*M9/8	*M9/8	*
=1	=1	=1
*	*^	*
*	*	*^	*
!	! The print edition has an arrow that points from b- to d- (voice overlap)	!	!	!
8d-L	4b-\	4g-	4ff	.
8E-	.	.	.	.
8FJ	8d-\	8f	8b-	.
8G-L	[4.d-\	[4.e-	[4.dd-	.
8BB-	.	.	.	.
8EE-J	.	.	.	.
8AAnL	4d-\]	4e-]	4dd-]	.
8A-X	.	.	.	.
8G-J	8d-\	8e-	8dd-	.
=2	=2	=2	=2	=2
8FL	2.d-\	[2.f	[2.dd-	.
8BB-	.	.	.	.
8BBB-J	.	.	.	.
8FFL	.	.	.	.
8D-	.	.	.	.
8FJ	.	.	.	.
8cL	4.rA	4.f]	4.dd-]	.
8An	.	.	.	.
8B-J	.	.	.	.
=3	=3	=3	=3	=3
!	! Assumed to be voice overlap in parallel to m. 1	!	!	!
8d-L	4b-\	4g-	4ff	.
8E-	.	.	.	.
8FJ	8d-\	8f	8b-	.
8G-L	[4.d-\	[4.e-	[4.dd-	.
8BB-	.	.	.	.
8EE-J	.	.	.	.
8BB--L	4d-\]	4e-]	4dd-]	.
8A-	.	.	.	.
8G-J	8d-\	8e-	8dd-	.
=4	=4	=4	=4	=4
8FL	2.d-\	[2.f	[2.dd-	.
8AA-	.	.	.	.
8DD-J	.	.	.	.
8AA-L	.	.	.	.
8D-	.	.	.	.
8FJ	.	.	.	.
8B-L	4.rA	4.f]	4.dd-]	.
8Gn	.	.	.	.
8A-J	.	.	.	.
=5	=5	=5	=5	=5
!	! The print edition has an arrow that points from b- to d- (voice overlap)	!	!	!
8c-XL	4a-X\	4f-	4ff-X	.
8D-	.	.	.	.
8E-J	8c-X\	8e-	8a-	.
8F-XL	[4.c-\	[4.d-	[4.cc-X	.
8AA-	.	.	.	.
8DD-J	.	.	.	.
8AA--L	4c-\]	4d-]	4cc-]	.
8G-	.	.	.	.
8F-J	8c-\	8d-	8cc-	.
*	*	*v	*v	*
=6	=6	=6	=6
8E-L	2.c-X 2.e-	[4.cc-X	.
8GG-	.	.	.
8CC-XJ	.	.	.
8GG-L	.	4cc-]	.
8C-X	.	.	.
8E-J	.	8g-	.
8A-L	4.c- 4.e-	4cc-	.
8F	.	.	.
8G-J	.	8b-	.
=7	=7	=7	=7
8G-L	4.c-X 4.e-	40%3b-L	.
.	.	40%3cc-X	.
8C-X	.	.	.
.	.	40%3b-	.
.	.	40%3an	.
8EE-J	.	.	.
.	.	40%3b-J	.
8C-L	4.g- 4.b-	4.ee-	.
8G-	.	.	.
8C-J	.	.	.
8c-XL	4.e- 4.g-	4.b-	.
8G-	.	.	.
8C-J	.	.	.
=8	=8	=8	=8
8FL	[4.cn [4.f	[4.an	.
8Cn	.	.	.
8FFJ	.	.	.
8CL	4c] 4f]	4a]	.
8F	.	.	.
8E-J	8c-X 8g-	8b-	.
8c-XL	4g- 4b-	4ee-	.
8G-	.	.	.
8E-J	8c- 8g-	8b-	.
=9	=9	=9	=9
8FL	[4.cn [4.f	[4.an	.
8Cn	.	.	.
8FFJ	.	.	.
8CL	4c] 4f]	4a]	.
8F	.	.	.
8E-J	8c-X 8g-	8b-	.
8c-XL	8b-L 8ee-	8gg-L	.
8G-	8.g- 8.b-	8.ee-	.
8E-J	.	.	.
.	16c-Jk 16g-	16b-Jk	.
=10	=10	=10	=10
8FL	4.cn 4.f	4.an	.
8Cn	.	.	.
8FFJ	.	.	.
*	*v	*v	*
8CL	4r	.
8An	.	.
8cJ	8r	.
8g-L	4r	.
8en	.	.
8fJ	8r	.
=11	=11	=11
*	*^	*
*	*	*^	*
!	! Assumed to be voice overlap in parallel to m. 1	!	!	!
8a-XL	4ff\	4dd-	4ccc	.
8B-	.	.	.	.
8cJ	8a-\	8cc	8ff	.
8d-L	[4.a-\	[4.b-	[4.aa-	.
8F	.	.	.	.
8BB-J	.	.	.	.
8F-XL	4a-\]	4b-]	4aa-]	.
8e-	.	.	.	.
8d-J	8a-\	8b-	8aa-	.
=12	=12	=12	=12	=12
8cL	2.a-\	[2.cc	[2.aa-	.
8E-	.	.	.	.
8AA-J	.	.	.	.
8E-L	.	.	.	.
8A-	.	.	.	.
8cJ	.	.	.	.
8fL	4.rc\	4.cc]	4.aa-]	.
8dn	.	.	.	.
8e-J	.	.	.	.
=13	=13	=13	=13	=13
!	! Assumed to be voice overlap in parallel to m. 1	!	!	!
8g-L	4ee-X\	4cc-	4ccc-X	.
8A-	.	.	.	.
8B-J	8g-\	8b-	8ee-	.
8c-XL	[4.g-\	[4.a-	[4.gg-	.
8E-	.	.	.	.
8AA-J	.	.	.	.
8DnL	4.g-\]	4.a-]	4gg-]	.
8d-X	.	.	.	.
8c-J	.	.	8gg-	.
*	*	*v	*v	*
=14	=14	=14	=14
8B-L	[2.g- [2.b-	[2.gg-	.
8E-	.	.	.
8EE-J	.	.	.
8BB-L	.	.	.
8G-	.	.	.
8B-J	.	.	.
8fL	4.g-] 4.b-]	4.gg-]	.
8e-	.	.	.
8B-J	.	.	.
=15	=15	=15	=15
*	*	*^	*
!	! Assumed to be voice overlap in parallel to m. 1	!	!	!
8d-L	4b-\	4g-	4ff	.
8E-	.	.	.	.
8FJ	8d-\	8f	8b-	.
8G-L	4.d-\	4.e-	[4.dd-	.
8BB-	.	.	.	.
8EE-J	.	.	.	.
8BB-L	4.d-\	4.b-	4.dd-]	.
8A-	.	.	.	.
8G-J	.	.	.	.
*	*	*v	*v	*
=16	=16	=16	=16
8B-L	[2.d- [2.b-	[2.dd-	.
8D-	.	.	.
8EEnJ	.	.	.
8D-L	.	.	.
8B-	.	.	.
8G-J	.	.	.
8g-L	4.d-] 4.b-]	4.dd-]	.
8B-	.	.	.
8G-J	.	.	.
=17	=17	=17	=17
8B-/L	4.g- 4.b-	40%3dd-L	.
.	.	40%3ee-	.
8D-	.	.	.
.	.	40%3dd-	.
.	.	40%3cc	.
8FFJ	.	.	.
.	.	40%3dd-J	.
8D-L	4.b- 4.dd-	4.gg-	.
8B-	.	.	.
8G-J	.	.	.
8g-L	4.g- 4.b-	4.dd-	.
8B-	.	.	.
8FFJ	.	.	.
=18	=18	=18	=18
8E-L	[4.e- [4.g-	[4.cc-X	.
8c-X	.	.	.
8G-J	.	.	.
8g-L	4e-] 4g-]	4cc-]	.
8c-	.	.	.
8FFJ	8g- 8b-	8dd-	.
8D-L	4b- 4dd-	4gg-	.
8B-	.	.	.
8FFJ	8g- 8b-	8dd-	.
=19	=19	=19	=19
8E-L	[4.e- [4.g-	[4.cc-X	.
8c-X	.	.	.
8G-J	.	.	.
8g-L	4e-] 4g-]	4cc-]	.
8c-	.	.	.
8FFJ	8g- 8b-	8dd-	.
8D-L	8g-L 8dd-	8bb-L	.
8B-	8b- 8dd-	8gg-	.
8FFJ	8g-J 8b-	8dd-J	.
=20	=20	=20	=20
8E-L	4.e- 4.g-	[4.cc-X	.
8c-X	.	.	.
8G-J	.	.	.
8g-L	4.r	4.cc-]	.
8c-	.	.	.
8e-J	.	.	.
*	*v	*v	*
[4.cc-X	4.r	.
=21	=21	=21
2.cc-]	4.r	.
.	4.r	.
4.r	8gg-L	.
.	8ee-	.
.	8b-J	.
=22	=22	=22
*^	*	*
[2.F	[2.e-	8anL	.
.	.	8a-X	.
.	.	[8anJ	.
*	*	*^	*
.	.	2.a]	8gg-	.
.	.	.	[4dd-	.
4.F]	4.e-]	.	4dd-]	.
.	.	.	8cc	.
=23	=23	=23	=23	=23
2.G-	2.d-	2.g-	16%3cc	.
.	.	.	16%3b-	.
.	.	.	16%3an	.
.	.	.	16%3b-	.
4.C	4.B-	4.en	16%3a-X	.
.	.	.	16%3g-	.
=24	=24	=24	=24	=24
[2.D-	[2.B-	[2.f	8fL	.
.	.	.	8an	.
.	.	.	8b-J	.
.	.	.	[4.ff	.
4.D-]	4.B-]	4.f]	4ff]	.
.	.	.	8ff	.
=25	=25	=25	=25	=25
[2.E-	[2.c-X	[2.g-	2.ff	.
4.E-]	4.c-]	4.g-]	4.ee-	.
*	*	*v	*v	*
*v	*v	*	*
=26	=26	=26
2.r	2.r	.
*^	*^	*
4.D-	4.B-	4.f	4.ff	.
=27	=27	=27	=27	=27
2.E-	2.c-X	2.g-	[4.ff	.
.	.	.	4ff]	.
.	.	.	8ee-	.
4.F	4.e-	4.an	4dd-	.
.	.	.	8cc	.
*v	*v	*	*	*
=28	=28	=28	=28
[2.BB- [2.E- [2.d-	[2.g-	40%3b-L	.
.	.	40%3cc	.
.	.	40%3b-	.
.	.	40%3an	.
.	.	40%3b-J	.
.	.	4.ff	.
4.BB-] 4.E-] 4.d-]	4.g-]	4.b-	.
=29	=29	=29	=29
[2.BB- [2.E- [2.d-	[2.g- [2.b-	[2.dd-	.
4.BB-] 4.E-] 4.d-]	4.g-] 4.b-]	4.dd-]	.
*	*v	*v	*
=30	=30	=30
[8qBBB- [8qFF	.	.
2.BBB-_ 2.FF_ [2.BB- [2.F [2.B-	[2.d- [2.f [2.b- [2.dd-	.
4.BBB-_ 4.FF_ 4.BB-_ 4.F_ 4.B-_	4.d-_ 4.f_ 4.b-_ 4.dd-_	.
=31	=31	=31
2.BBB-_ 2.FF_ 2.BB-_ 2.F_ 2.B-_	2.d-_ 2.f_ 2.b-_ 2.dd-_	.
4.BBB-] 4.FF] 4.BB-] 4.F] 4.B-]	4.d-] 4.f] 4.b-] 4.dd-]	.
==	==	==
*-	*-	*-
!!!system-decoration: {(*)}
!!!filter: flipper -a
!!!ENC: Bryan Jacob Bell
!!!END: November 2021 to April 2022
!!!PED: Konstantin Igumnov and Yakov Milstein
!!!PTL: A.N. Skryabin: Polnoe sobranie sochinenii dlia fortepiano (Muzgiz)
